Papirus-Light/16x16/panel/keyboard-battery-good.svg

<svg xmlns="http://www.w3.org/2000/svg" width="16" height="16" version="1.1">
 <defs>
  <style id="current-color-scheme" type="text/css">
   .ColorScheme-Text { color:#444444; } .ColorScheme-Highlight { color:#4285f4; } .ColorScheme-NeutralText { color:#ff9800; } .ColorScheme-PositiveText { color:#4caf50; } .ColorScheme-NegativeText { color:#f44336; }
  </style>
 </defs>
 <path opacity=".35" style="fill:currentColor" class="ColorScheme-Text" d="m 2.5000075,-0.002 c -0.277,0 -0.5,0.22301 -0.5,0.50001 v 0.5 h -2 v -2.6e-4 l -1.5e-5,14.502 c 0,0.277 0.223,0.5 0.5,0.5 h 6 c 0.277,0 0.5,-0.223 0.5,-0.5 v -14.5 l -0.50002,0.002 h -1.5 v -0.5 c 0,-0.277 -0.223,-0.50001 -0.5,-0.50001 z"/>
 <path style="fill:currentColor" class="ColorScheme-Text" d="M 7.5e-6,4.998 -7.5e-6,15.5 c 0,0.277 0.223,0.5 0.5,0.5 h 6 c 0.277,0 0.5,-0.223 0.5,-0.5 V 5 Z"/>
 <path fill-rule="evenodd" style="fill:currentColor" class="ColorScheme-Text" d="m 10.000008,0.998 c -0.5540005,0 -1.0000005,0.446 -1.0000005,1 v 13 c 0,0.554 0.446,1 1.0000005,1 h 5 c 0.553999,0 0.999999,-0.446 0.999999,-1 v -13 c 0,-0.554 -0.446,-1 -0.999999,-1 z m 0,3 h 1 v 1 h -1 z m 2,0 h 1 v 1 h -1 z m 2,1 h 1 v 7 h -1 z m -4,1 h 1 v 1 h -1 z m 2,0 h 1 v 1 h -1 z m -2,2 h 1 v 1 h -1 z m 2,0 h 1 v 1 h -1 z m -2,2 h 1 v 1 h -1 z m 2,0 h 1 v 1 h -1 z m -2,2 h 1 v 1 h -1 z m 2,0 h 1 v 1 h -1 z"/>
</svg>

<svg xmlns="http://www.w3.org/2000/svg" width="16" height="16" version="1.1">
 <defs>
  <style id="current-color-scheme" type="text/css">
   .ColorScheme-Text { color:#444444; } .ColorScheme-Highlight { color:#4285f4; } .ColorScheme-NeutralText { color:#ff9800; } .ColorScheme-PositiveText { color:#4caf50; } .ColorScheme-NegativeText { color:#f44336; }
  </style>
 </defs>
 <path style="opacity:.35;fill:currentColor" class="ColorScheme-Text" d="M 2.5,1 C 2.223,1 2,1.78 2,1.5 V 2 H 0 V 2 14.5 C 0,14.78 0.223,15 0.5,15 H 6.5 C 6.777,15 7,14.78 7,14.5 V 2 H 6.5 5 V 1.5 C 5,1.23 4.777,1 4.5,1 Z"/>
 <path style="fill:currentColor" class="ColorScheme-Text" d="M 0,5 V 14.5 C 0,14.78 0.223,15 0.5,15 H 6.5 C 6.777,15 7,14.78 7,14.5 V 5 Z"/>
 <path style="fill:currentColor;fill-rule:evenodd" class="ColorScheme-Text" d="M 10,2 C 9.446,2 9,2.45 9,3 V 14 C 9,14.55 9.446,15 10,15 H 15 C 15.554,15 16,14.55 16,14 V 3 C 16,2.45 15.554,2 15,2 Z M 10,4 H 11 V 5 H 10 Z M 12,4 H 13 V 5 H 12 Z M 14,5 H 15 V 12 H 14 Z M 10,6 H 11 V 7 H 10 Z M 12,6 H 13 V 7 H 12 Z M 10,8 H 11 V 9 H 10 Z M 12,8 H 13 V 9 H 12 Z M 10,10 H 11 V 11 H 10 Z M 12,10 H 13 V 11 H 12 Z M 10,12 H 11 V 13 H 10 Z M 12,12 H 13 V 13 H 12 Z"/>
</svg>
